X:1
T:1441
T:Presto
T:Quartet op.76 no.5: IV 
T:Joseph Haydn
C:Franz Josef Haydn 1732-1809
%%score 1 2 3 4
L:1/8
M:2/4
K:D
V:1 treble+8 nm="Descant Recorder" snm="D. Rec."
V:2 treble nm="Treble Recorder" snm="T. Rec."
V:3 treble nm="Tenor Recorder" snm="T. Rec."
V:4 bass+8 nm="Bass Recorder" snm="B. Rec."
V:1
!f!"^Presto" c | d2 z2 | z3 c | d2 z2 | z3 c | dc dc | d2 z2 | z4 | z3!p! A/G/ | FF/E/ DE | %10
 F/G/F/E/ DA/G/ | FF/E/ DE | F2 D z | z4 | z4 | z4 | z3!f! c | d2 z c | d2 z c | dc dc | d2 z ^A | %21
 B2 z ^A | B2 z ^G | A^G AG | A2 z!p! E | EE EE | EE EE | EE EE | EE EE | EE EE | EE EE | EE EE | %32
 EE EE | EE EE | EE E!f!^G | A^G AG | A2 z F | GF GF | G2 z ^D | E^D EF | GF GC | DC DE | FE F^A | %43
 B^A Bc | dc d^A | B^A B=A | ^G2 z2 | z4 | z4 | z4 |!p! GG GG | GG GG |!f! FF/^G/ ^AA/B/ | %53
 cc/d/ e^A | BB/c/ dd/e/ | ff/e/ d/c/B/A/ | ^GE/F/ GG/A/ | BB/c/ d^G | AA/B/ cc/d/ | %59
 ee/d/ c/B/A/^G/ | F2 z2 | F2 z2 | E2 z2 | B2 z2 | z4 | z4 | z4 | z4 | z4 | z4 | =c4 | A4 | =F4 | %73
 D2 z!p! _B | A2 z A | ^G2 z G | ^c2 z2 | z4 | z4 | z4 | z!f! A/B/ cc/d/ | ee dc | B!p!B BB | %83
 BB BB | BB BB | BB BB | BB BB | BB BB |!f! A z c z | D z B z | A2 z2 | z4 | z4 | z4 | z4 | z4 | %96
 z3!p! E/F/ | ^GG/A/ BB/c/ | d2 B^G/A/ | B"_cresc."B/c/ dd/e/ | f4 | ^g4 |!f! a/^g/f/e/ d/c/B/A/ | %103
 B/A/B/c/ d/e/f/^g/ | a/^g/f/e/ d/c/B/A/ | B/A/B/c/ d/e/f/^g/ | a/^g/f/e/ d/c/B/A/ | %107
 ^G/F/G/A/ B/c/d/B/ | A z E z | E z A z | A2 z2 | z4 | F/^G/F/^E/ F/G/F/E/ | F^G AF | EA ce | %115
 ed cB | Ae EB | ce E^G | Ae EB | ce E^G | A2 z!p! E | C2 z D | E2 z F | G2 z A | B2 z2 | %125
 z3!f! c || d4- | d2 _B2 | =F2 D2 | D2 z2 | z4 | z4 | z4 | z4 | z4 | z4 | z4 | z4 | z4 | z4 | z4 | %141
 z!f! B/=c/ dd/_e/ | =ff/g/ _aB | =c2 z2 | z4 | z4 | z4 | z C/D/ EE/=F/ | GG/A/ _BC | D2 z A/G/ | %150
 =FF/E/ DE | =F/G/F/E/ DA/G/ | =FF/E/ DE | =F2 D_B | _BB BB | _B/=c/B/A/ Gc | =cc cc | %157
 =c/d/c/_B/ Ad | dd dd | _B/=c/B/A/ G z | z4 | z3 B | BB BB | =c/B/c/d/ eA | AA AA | %165
 ^G/A/G/F/ E!p!B | BB B z | z3 B | BB B z | z3!pp! G | GG G z | z3 G | GG GG |!<(! GG GG!<)! | %174
 GG GG |!f! FF/^G/ ^AA/B/ | cc/d/ e^A | BB/c/ dd/e/ | f^g/^a/ bd | cE/F/ GE | DF ^AA | B z z2 | %182
 z4 | G z g z | F z ^A z | B2 z2 | z4 | z4 | z4 |!p! DD DD | DD DD | G!<(!G GG!<)! | GG Gc | %193
!f! d2 z c | d2 z c | d2 z c | dc dc | d2 z ^A | B^A BA | B2 z F | GF GF | G2 z ^D | E^D ED | %203
 EE/F/ GG/A/ | BG ED | E2 z C/D/ | EE/F/ GC | DF/G/ AB/c/ | dd/c/ d^G | AA/B/ cc/d/ | ee/f/ gc | %211
 dc dc | dc d^G | A^G AF | GF G^E | F^E F^D | E^D EC | DC DE | FE FG | A^G A^A | BG ED | C2 z2 | %222
 z4 | z4 | z4 |!p! =cc cc | =cc cc |!f! BB/c/ ^dd/e/ | ff/g/ a^d | ee/f/ gg/a/ | bb/a/ g/f/e/d/ | %231
 cA/B/ cc/d/ | ee/f/ gc | dd/e/ ff/g/ | aa/g/ f/e/d/c/ | Bd/c/ B/A/G/F/ | EB/A/ G/F/E/D/ | %237
 C/D/E/F/ G/A/B/c/ | de fd | Bd BG | FA CE | F z z2 | z4 | z4 | z4 | z D/E/ FF/G/ | AA GF | %247
 E!p!E EE | EE EE | EE EE | EE EE | EE EE | EE EE |!f! D z F z | G z E z | D2 z2 | z4 | z4 | z4 | %259
 z4 | z4 | z3!p! A/B/ | cc/d/ ee/f/ | g2 e!<(!c/d/!<)! | ee/f/ gg/a/ | b4 | c4 | %267
!f! d/c/B/A/ G/F/E/D/ | E/D/E/F/ G/A/B/c/ | d/c/B/A/ G/F/E/D/ | E/D/E/F/ G/A/B/c/ | %271
 d/c/B/A/ G/F/E/D/ | E/D/E/F/ G/A/B/c/ | d z e z | f z g z | a2 z2 | z4 | B/c/B/^A/ B/c/B/A/ | %278
 Bc dB | Ad FA | AG FE | DA z E | FA z C | DA z E | FA z C | D2 z E | F2 z c | d2 z c | dc dc | %289
 d2 z2 | D2 z2 | D2 z2 |] %292
V:2
!f! e | f2 z2 | z3 e | f2 z2 | z3 e | fe fe | f2 z!p! A | AA AA | AA AA | AA AA | AA AA | AA AA | %12
 AA AA | AA AA | AA AA | AA AA | AA A!f!e | f2 z e | f2 z e | fe fe | f2 z c | d2 z c | d2 z B | %23
 cB cB | c2 z2 | z4 | z3!p! e/d/ | cc/B/ AB | c/d/c/B/ Ae/d/ | cc/B/ AB | c2 A z | z4 | z4 | z4 | %34
 z2 z!f! d | cd cd | c2 z A | BA BA | B2 z A | B=c BB | B3 A | A_B AA | A3 c | dc dg | fg fe | %45
 fg ff | e2 z2 | z4 | z4 | z4 |!p! cc cc | cc cc |!f! cc cc | cc cc | BB BB | BB BB | BB BB | %57
 BB BB | AA AA | AA AA | fa/^g/ f/e/d/c/ | d2 z2 | B2 z2 | z b/a/ ^g/f/e/d/ | cA/B/ cA/B/ | %65
 cB/c/ dc/d/ | ed/e/ fd/e/ | fe/f/ ^gf/g/ | af/^g/ af/g/ | a^g/a/ ba/b/ | =c4 | A4 | _B4- | %73
 B2 z!p! d | =c2 z c | B2 z B |!f! A2 z A/B/ | cc BA | ^G2 z B/c/ | dd cB | A2 z A/B/ | cc BA | %82
 e!p!e ee | ee ee | ee ee | ee ee | ^dd dd | dd dd |!f! c z A z | B z ^G z | AA/B/ cc/d/ | ee dc | %92
 BB/c/ dd/e/ | ff ed | cA/B/ cc/d/ | ee dc | B!p!B BB | BB BB | BB BB | B"_cresc."B BB | BB BB | %101
 BB BB |!f! AA AA | ^GG/A/ B/c/d/B/ | AA AA | ^G/F/G/A/ B/c/d/B/ | AA AA | B/A/B/c/ d/e/f/^g/ | %108
 a z b z | c' z d' z | e'2 z2 | z4 | f/^g/f/^e/ f/g/f/e/ | f^g ad | c2 Ac | cB A^G | A2 z d | %117
 c2 z B | c2 z d | c2 z B | c2 z!p! B | A2 z B | c2 z d | e2 z f | g2 z2 | z3!f! g || =f4- | f4- | %128
 f4 | _B2 B2 | =F2 z2 | z2 z!p! =F | =FF FF | =FF FF | =FF FF | =FF FF | =FF FF | =FF FF | _BB BB | %139
 _BB BB | _BB BB |!f! =BB BB | BB Bd | _e!p!G GG | GG GG | GG GG | GG GG |!f! GG GG | GG GG | %149
 =FA AA | AA AA | AA AA | AA AA | AA AA | AA AA | GA _BB | _BB BB | A_B =cc | =cc cA | _B2 z A | %160
 AA AA | _B/A/B/=c/ d^G | ^GG GG | A/^G/A/B/ =c^d | ^dd dd | e2 z!p! e | ee e z | z3 e | ee e z | %169
 z3!pp! ^c | cc c z | z3 c | cc cc |!<(! cc cc!<)! | cc cc |!f! cc cc | cc cc | BB BB | BB BB | %179
 GG/F/ Ec | dB cc | BB/c/ dc/d/ | ed/e/ fe/f/ | G z e z | d z e z | d2 z2 | z4 | z4 | z4 | %189
!p! gg gg | gg gg |!<(! cc cc!<)! | cc ca/g/ |!f! f/g/f/e/ d/b/a/g/ | f/g/f/e/ d/b/a/g/ | %195
 f/g/f/e/ d/b/a/g/ | f/b/a/g/ f/b/a/g/ | f/g/f/e/ d/g/f/e/ | d/g/f/e/ d/g/f/e/ | %199
 d/e/d/c/ B/e/d/=c/ | B/e/d/=c/ B/e/d/c/ | B/=c/B/A/ G/c/B/A/ | G/=c/B/A/ G/c/B/A/ | GB BB | %204
 BB BB | cA/B/ cA/B/ | cc/d/ eG | Fd/e/ f/d/B/A/ | ^G3 d | ce/d/ cg/f/ | ee/d/ ce | d2 z g | %212
 a2 z d | e2 z c | d2 z d | cd c=c | B=c B_B | A_B AA | A3 d | d4- | d3 B | A2 z2 | z4 | z4 | z4 | %225
!p! ff ff | ff ff |!f! ff ff | ff ff | ee ee | ee ee | ee ee | ee ee | dd dd | dd dd | B z z2 | %236
 B2 z2 | A4 | AG FA | B2 ge | df ec | d2 z d/e/ | ff ed | c2 z e/f/ | gg fe | d2 z d/e/ | ff ed | %247
 A!p!A AA | AA AA | AA AA | AA AA | ^GG GG | GG GG |!f! F z d z | e z c z | d2 z2 | z4 | z4 | z4 | %259
 z d/e/ ff/g/ | aa gf | e!p!e ee | ee ee | ee ee |!<(! ee ee!<)! | ee ee | ee ee |!f! dd dd | %268
 cc/d/ e/f/g/e/ | dd dd | c/B/c/d/ e/f/g/e/ | dd dd | c/B/c/d/ e/f/g/e/ | d z a z | a z d' z | %275
 d'2 z2 | z4 | B/c/B/^A/ B/c/B/A/ | Bc dg | f2 df | fe dc | d2 Ac | d2 AG | F2 Ac | d2 AG | %285
 F2 z c | d2 z g | f2 z g | fg fg | f2 z2 | A2 z2 | A2 z2 |] %292
V:3
!f! G | F2 z2 | z3 G | F2 z2 | z3 G | FG FG | F2 z!p! D | DD DD | DD DD | DD DD | DD DD | DD DD | %12
 DD DD | DD DD | DD DD | DD DD | DD D!f!G | F2 z G | F2 z G | FG FG | F2 z E | D2 z E | D2 z D | %23
 CD CD | C2 z!p! A | AA AA | AA AA | AA AA | AA AA | AA AA | z3!p! e/d/ | cc/B/ AB | %32
 c/d/c/B/ Ae/d/ | cc/B/ AB | c2 AB | cB cB | c2 z =c | B=c Bc | B2 z F | GA G^D | E^D EG | FG FC | %42
 DC DG | FG Fe | de dc | Be dB | B!p!B BB | BB BB | BB BB | BB BB | BB BB | BB BB |!f! ^AA AA | %53
 ^AA Ac | FF FF | BB BB | E^G GG | ^GG GB | ee ee | AA AA | d2 z2 | Bf/e/ d/c/B/A/ | %62
 ^Gf/e/ d/c/B/A/ | ^G z z G | AA/B/ cA/B/ | cB/c/ dc/d/ | ed/e/ fd/e/ | fe/f/ ^gf/g/ | %68
 af/^g/ af/g/ | a^g/a/ ba/B/ | =c4 | A4 | =F4- | F z z!p! =F | E2 z E | D2 z D | z!f! A/B/ cc/d/ | %77
 ee dc | BB/c/ dd/e/ | ff ed | c2 z2 | z4 | z3!p! E/F/ | ^GG/A/ BB/c/ | d2 B^G/A/ | BB/c/ dd/e/ | %86
 f4 | ^G4 |!f! A z A z | F z D z | c2 z A/B/ | cc BA | ^G2 z B/c/ | dd cB | A2 z A/B/ | cc BA | %96
 ^G2 z2 | z4 | z4 | z4 | z4 |!p! EE"_cresc." EE |!f! EE EE | EE EE | EE EE | EE EE | EE EE | %107
 EE EE | E z E z | A z F z | E2 z2 | z4 | A4- | A4- | A4 | e4 | e2 z ^G | A2 z d | c2 z ^G | %119
 A2 z d | c2 z2 | z4 | z4 | z4 | z4 | z3!f! E || D4- | D4- | D4- | D2 _B2 | =F2 D2 | z4 | z4 | %133
 z3!p! =f/_e/ | dd/=c/ _Bc | d/_e/d/=c/ _B=f/e/ | dd/=c/ _Bc | d2 _B z | =FF FF | =FF FF | =FF FF | %141
!f! =FF FF | =FF FF | =c2 z g/=f/ | _ee/d/ =cd | _e/=f/e/d/ =cg/f/ | _ee/d/ =cc/_B/ | A4- | A4 | %149
 DD DD | DD DD | DD DD | DD DD | DD D=F | =FF FF | E3 G | GG GG | =F3 A | AA AA | D2 z F | FF FF | %161
 G/F/G/A/ _BE | EE EE | =c/d/c/B/ Ac | =cc cA | B2 z2 | z3!p! B | BB B z | z3 B | BB B z | %170
 z3!pp! B | BB B z | z3 B |!<(! BB BB!<)! | BB BB |!f! ^AA AA | ^AA AF | FF FF | FF FF | FF FF | %180
 Bd F^A | BB/c/ dc/d/ | ed/e/ fe/f/ | G z E z | F z F z |!p! FF FF | FF FF | FF FF | FF FF | %189
 FF FF | FF FF |!<(! ee ee!<)! | ec AE |!f! F2 z A | A2 z E | F2 z A | AA FE | F2 z c | dc dc | %199
 d2 z A | BA BA | B2 z F | GF GF | G z z E/F/ | G3 ^G | AC/D/ E z | G3 E | F2 z2 | B4 | %209
 Ac/B/ Ae/d/ | cg/f/ eA | A z z e | f2 z B | c2 z ^A | B2 z B | ^AB A=A | ^GA G=G | FG Fc | dc dd | %219
 d4 | B3 E | E!p!E EE | EE EE | EE EE | EE EE | EE EE | EE EE |!f! ^DD DD | ^DD DF | BB BB | %230
 BB BB | Ac cc | cc cA | AA AA | AA AA | D2 z2 | G2 z2 | c3 e | dc dd | d2 z2 | z2 G2 | %241
 DD/E/ FF/G/ | AA GF | EE/F/ GG/A/ | BB AG | F z z2 | z4 | z4 | z4 | z4 | z4 | z4 | AA AA | %253
!f! A z d z | B z G z | fD/E/ FF/G/ | AA GF | EE/F/ GG/A/ | BB AG | F2 z D/E/ | FF ED | A!p!A AA | %262
 AA AA | AA AA |!<(! AA AA!<)! | ^GG GG | GG GA |!f! AA AA | AA AA | AA AA | AA AA | AA AA | %272
 AA AA | A z A z | d z B z | A2 z2 | z4 | D4- | D4- | D4 | A4 | A2 z G | F2 z E | F2 z G | F2 z E | %285
 F2 z G | F2 z E | F2 z E | FE FE | F2 z2 | F2 z2 | F2 z2 |] %292
V:4
!f! A, | D,2 z2 | z3 A, | D,2 z2 | z3 A, | D,A, D,A, | D,2 z2 | z4 | z4 | z4 | z4 | z4 | %12
 z3!p! A,/G,/ | F,F,/E,/ D,E, | F,/G,/F,/E,/ D,A,/G,/ | F,F,/E,/ D,E, | F,2 D,!f!A, | D,2 z A, | %18
 D,2 z A, | D,A, D,A, | D,2 z F, | B,,2 z F, | B,,2 z E, | A,,E, A,,E, | A,,2 z2 | z4 | z4 | z4 | %28
 z4 | A,A, A,A, | A,A, A,A, | A,A, A,A, | A,A, A,A, | A,A, A,A, | A,A, A,!f!E, | A,,E, A,,E, | %36
 A,,2 z D, | G,,D, G,,D, | G,,2 z2 | z4 | z4 | z4 | z3 E, | D,E, D,^A,, | B,,^A,, B,,C, | %45
 D,C, D,^D, | E,!p!E, E,E, | E,E, E,E, | E,E, E,E, | E,E, E,E, | E,E, E,E, | E,E, E,E, | %52
!f! E,E, E,E, | E,E, E,E, | D,D, D,D, | D,D, D,D, | D,D, D,D, | D,D, D,D, | C,C, C,C, | C,C, C,C, | %60
 D,2 z2 | D,2 z2 | D,2 z2 | D,2 z z | z4 | z4 | z4 | z4 | z4 | z4 | =C4 | A,4 | D,4- | %73
 D,2 z!p! D, | E,2 z E, | E,2 z E, | A,,2 z2 | z3!f! A,, | E,2 z2 | z3 E, | A,2 z2 | z4 | z4 | z4 | %84
 z4 | z4 | z4 | E,E, E,E, |!f! A,A, F,F, | D,D, E,E, | A,,2 z2 | z3 A, | E,2 z2 | z3 E, | A,2 z2 | %95
 z2 A,,2 | E,!p!E, E,E, | E,E, E,E, | E,E, E,E, | E,"_cresc."E, E,E, | ^D,D, D,D, | =D,D, D,D, | %102
!f! C,C, C,C, | D,D, D,D, | C,C, C,C, | D,D, D,D, | C,C, C,C, | D,D, D,D, | C z ^G, z | A, z F, z | %110
 C,2 z2 | z4 | D,4- | D,4 | E,4 | E,4 | A,,2 z E, | A,,2 z E, | A,,2 z E, | A,,2 z E, | A,,2 z2 | %121
 z4 | z4 | z4 | z4 | z3!f! A,, || _B,,4- | B,,4- | B,,4- | B,,2 _B,2 | =F,2 D,2 | _B,,2 z!p! B,, | %132
 _B,,B,, B,,B,, | _B,,B,, B,,B,, | _B,,B,, B,,B,, | _B,,B,, B,,B,, | _B,,B,, B,,B,, | %137
 _B,,B,, B,, =F,/_E,/ | D,D,/=C,/ _B,,C, | D,/_E,/D,/=C,/ _B,,=F,/E,/ | D,D,/=C,/ _B,,B,,/_A,,/ | %141
!f! G,,4- | G,,4 | =C,C, C,C, | =C,C, C,C, | =C,C, C,C, | =C,C, C,C, |!f! ^C,C, C,C, | ^C,C, C,E, | %149
 D,D, D,D, | z4 | z4 | z4 | z3 D, | D,D, D,D, | E,3 E, | E,E, E,E, | =F,3 ^F, | F,F, F,F, | %159
 G,2 z D, | D,D, D,D, | _B,,/=C,/B,,/A,,/ G,, z | z4 | z3 =F, | =F,F, F,F, | E,2 z2 | z3!p! E, | %167
 E,E, E, z | z3 E, | E,E, E, z | z3!pp! E, | E,E, E, z | z3 E, |!<(! E,E, E,E,!<)! | E,E, E,E, | %175
!f! E,E, E,E, | E,E, E,E, | D,D, D,D, | D,D, D,D, | E,E, E,E, | F,F, F,F, | B,,B,,/C,/ D,C,/D,/ | %182
 E,D,/E,/ F,E,/F,/ | G, z E, z | F, z F, z |!p! B,B, B,B, | B,B, B,B, | B,B, B,B, | B,B, B,B, | %189
 B,B, B,B, | B,B, B,B, |!<(! A,A, A,A,!<)! | A,,A,, A,,A,, |!f! D,2 z A, | D2 z A, | D2 z A, | %196
 DA, DA, | D2 z F, | B,F, B,F, | B,2 z D, | G,D, G,D, | G,2 z B,, | E,B,, E,B,, | E,E, E,E, | %204
 E,E, G,^G, | A,A, A,A, | A,A, A,A, | A,,A, A,A, | A,A, A,A, | A,,A, A,A, | A,A, A,G, | F,2 z2 | %212
 z4 | z4 | z4 | z4 | z4 | z4 | z3 B, | F,^E, F,F, | G,2 z ^G, | A,!p!A, A,A, | A,A, A,A, | %223
 A,A, A,A, | A,A, A,A, | A,A, A,A, | A,A, A,A, |!f! A,A, A,A, | A,A, A,A, | G,G, G,G, | G,G, G,G, | %231
 G,G, G,G, | G,G, G,G, | F,F, F,F, | F,F, F,F, | G,2 z2 | G,2 z2 | G,4 | F,E, D,F, | G,4 | %240
 A,2 A,,2 | D,2 z2 | z3 D, | A,2 z2 | z3 A,, | D,2 z2 | z4 | z3!p! A,,/B,,/ | C,C,/D,/ E,E,/F,/ | %249
 G,2 E,C,/D,/ | E,E,/F,/ G,G,/A,/ | B,4 | C4 |!mf! DD B,B, | G,G, A,A, | D,2 z D,/E,/ | F,F, E,D, | %257
 A,,2 z E,/F,/ | G,G, F,E, | D,2 z2 | z4 | z4 | z4 | z4 | z4 | z4 |!p!!<(! A,,3 G,!<)! | %267
!f! F,F, F,F, | G,G, G,G, | F,F, F,F, | G,G, G,G, | F,F, F,F, | G,G, G,G, | F, z C, z | %274
 D, z B,, z | F,,2 z2 | z4 | G,4- | G,4 | A,4 | A,,4 | D,2 z A, | D,2 z A, | D,2 z A, | D,2 z A, | %285
 D,2 z A, | D,2 z A, | D,2 z A,, | D,A,, D,A,, | D,2 z2 | D,2 z2 | D,2 z2 |] %292

